X: 34663
T: Road To Cashel, The
R: reel
M: 4/4
K: Edorian
FEED E2E2|FE~E2 deBd|FEED E2BA|1 FDD2 dABd:|2 FAdA BdAd||
~B3d fgfe|dfab afed|(3Bcd ge ~f3e|dBAF FEE2|
~B3d fgfe|dfab afef|bf~f2 af~f2|bfaf edBA||

